ERK
CUT[ACH LIEBER IGEL LASS MICH LEBEN]
REG[Europa, Mitteleuropa, Deutschland]
TRD[]
FKT[]
SIG[E1869]
KEY[E1869   08  G 4/4]
MEL[1_  1_1_5_5_  1_1_1_1
    1  2_3_4_4_  3_3_2_2_
    1_2_3_3_  2__1_ //]
BEM[]
MEL_SEM[0 0 7 0 -7 0 0 0 0 2 2 1 0 -1 0 -2 0 -2 2 2 0 -2 -2]
MEL_RAW[1  1155  1111
    1  2344  3322
    1233  21]
NO_REP[151
    123432
    12321]
RTM[x_  x_x_x_x_  x_x_x_x
    x  x_x_x_x_  x_x_x_x_
    x_x_x_x_  x__x_]
SCL_DEG[12345]
SCL_SEM[2 2 1 2]

